X:17
T:May Fly. CAM2.[17], The
T:I'll Get Wedded in my Auld Claes,aka. CAM2.[17]
T:Hexham Quadrille,aka. CAM2.[17]
B:Anon MS#2, early 19thC, Northumbria, Cocks Coll.
Z:Village Music Project 2016 Steve Mansfield
M:6/8
L:1/8
Q:3/8=75
N:Fragment; page 26 missing from scan of Mss
K:G
d | gfe dBG | BAG E2D | GAB AFD | GAB Bge |
age dBG | BAG E2D | GAB AFD | D2G G2 :|
|: e | dBd gfg | ece a2g | fef def | gba gfe |]

